svg/fluentui-system-icons/ic_fluent_send_clock_24_filled.svg

<svg width="24" height="24" viewBox="0 0 24 24" fill="none" xmlns="http://www.w3.org/2000/svg">
<path d="M12.8147 12.1969L5.28344 13.4521C5.10705 13.4815 4.95979 13.6029 4.89723 13.7704L2.29933 20.7278C2.05066 21.3673 2.72008 21.9773 3.33375 21.6705L11.0084 17.8332C11.0028 17.7228 11 17.6117 11 17.5C11 13.9101 13.9101 11 17.5 11C19.0532 11 20.4792 11.5448 21.5973 12.4537C21.8648 12.1015 21.777 11.5505 21.3337 11.3288L3.33375 2.32885C2.72008 2.02201 2.05066 2.63206 2.29933 3.2715L4.89723 10.2289C4.95979 10.3964 5.10705 10.5178 5.28344 10.5472L12.8147 11.8024C12.9236 11.8205 12.9972 11.9236 12.9791 12.0325C12.965 12.1168 12.899 12.1829 12.8147 12.1969ZM17.5 12C20.5376 12 23 14.4624 23 17.5C23 20.5376 20.5376 23 17.5 23C14.4624 23 12 20.5376 12 17.5C12 14.4624 14.4624 12 17.5 12ZM19.5 17.5001H17.5L17.5 14.9999C17.5 14.7238 17.2761 14.4999 17 14.4999C16.7239 14.4999 16.5 14.7238 16.5 14.9999L16.5 17.9985L16.5 18.0001C16.5 18.2762 16.7239 18.5001 17 18.5001H19.5C19.7761 18.5001 20 18.2762 20 18.0001C20 17.7239 19.7761 17.5001 19.5 17.5001Z" fill="#212121"/>
</svg>

<svg xmlns="http://www.w3.org/2000/svg" width="24" height="24"><path d="m12.815 12.197-7.532 1.255a.5.5 0 0 0-.386.318L2.3 20.728c-.248.64.421 1.25 1.035.942l7.674-3.837a6.5 6.5 0 0 1 10.589-5.38.752.752 0 0 0-.263-1.124l-18-9c-.614-.307-1.283.303-1.035.942l2.598 6.958a.5.5 0 0 0 .386.318l7.532 1.255a.2.2 0 0 1 0 .395ZM17.5 12a5.5 5.5 0 1 1 0 11 5.5 5.5 0 0 1 0-11Zm2 5.5h-2V15a.5.5 0 0 0-1 0v3a.5.5 0 0 0 .5.5h2.5a.5.5 0 0 0 0-1Z"/></svg>
